src/components/Icon/assets/browser-safari.svg

<svg width="24" height="24" viewBox="0 0 24 24" fill="none" xmlns="http://www.w3.org/2000/svg">
<path fill-rule="evenodd" clip-rule="evenodd" d="M22 12C22 17.523 17.5226 22 12 22C6.47672 22 2 17.5233 2 12C2 6.47672 6.47672 2 12 2C17.5226 2 22 6.47704 22 12ZM20 12C20 7.58165 16.4181 4 12 4C7.58128 4 4 7.58128 4 12C4 16.4187 7.58128 20 12 20C16.4181 20 20 16.4184 20 12ZM9.28571 14.7161L12.9167 12.9151L12.9227 12.9021L11.4847 11.4441L11.0987 11.0781L11.0857 11.0851L9.28571 14.7161ZM10.4797 10.1301L16.6037 7.09413C16.7967 6.99813 17.0027 7.20313 16.9067 7.39613L13.8717 13.5201C13.7957 13.6721 13.6727 13.7951 13.5217 13.8701L7.39871 16.9061C7.20471 17.0021 6.99971 16.7971 7.09571 16.6031L10.1307 10.4791C10.2067 10.3281 10.3287 10.2051 10.4797 10.1301Z" fill="#65676A"/>
</svg>

<svg xmlns="http://www.w3.org/2000/svg" width="24" height="24" viewBox="0 0 24 24">
    <path fill="#65676A" fill-rule="evenodd" d="M12 2c5.515 0 10 4.487 10 10 0 5.514-4.485 10-10 10-5.514 0-10-4.486-10-10C2 6.487 6.487 2 12 2zm0 2c-.302 0-.6.02-.892.053l.229 1.3-.985.174-.228-1.295C6.617 5.08 4 8.237 4 12c0 .303.02.6.053.894l1.3-.23.173.985-1.295.228C5.08 17.384 8.237 20 12 20c.302 0 .6-.02.894-.053l-.23-1.3.986-.173.228 1.294C17.385 18.92 20 15.764 20 12c0-.302-.02-.6-.054-.893l-1.298.228-.174-.985 1.294-.228C18.92 6.616 15.764 4 12 4zm4.604 3.094c.193-.096.399.11.303.302l-3.035 6.124c-.076.152-.2.275-.35.35l-6.123 3.036c-.194.096-.4-.109-.303-.303l3.035-6.124c.076-.15.198-.274.349-.349zm-5.505 3.984l-.013.007-1.8 3.631 3.63-1.8.007-.014-1.438-1.458-.386-.366z"/>
</svg>
